16x16/panel/android-messages-desktop-tray-unread.svg

<svg height="16" width="16" xmlns="http://www.w3.org/2000/svg"><path d="m3.498 2a2.5 2.5 0 0 1 .502 1.5 2.5 2.5 0 0 1 -2.346 2.494l.348.524v3.892a2.585 2.585 0 0 0 2.59 2.59h8.818a2.585 2.585 0 0 0 2.59-2.59v-5.82a2.585 2.585 0 0 0 -2.59-2.59zm1.832 2h7.274c.201 0 .363.223.363.5s-.162.5-.363.5h-7.274c-.201 0-.363-.223-.363-.5s.162-.5.363-.5zm0 3h7.274c.201 0 .363.223.363.5s-.162.5-.363.5h-7.274c-.201 0-.363-.223-.363-.5s.162-.5.363-.5zm.1 3h5.142c.238 0 .428.223.428.5s-.19.5-.428.5h-5.142c-.238 0-.43-.223-.43-.5s.192-.5.43-.5z" fill="#8b9cbe"/><circle cx="1.5" cy="3.5" fill="#4285f4" r="1.5"/></svg>

<svg xmlns="http://www.w3.org/2000/svg" width="16" height="16"><defs><style id="current-color-scheme" type="text/css"></style></defs><path style="fill:currentColor;color:#8b9cbe" d="M3.498 2A2.5 2.5 0 0 1 4 3.5a2.5 2.5 0 0 1-2.346 2.494l.348.524v3.892A2.585 2.585 0 0 0 4.592 13h8.818A2.585 2.585 0 0 0 16 10.41V4.59A2.585 2.585 0 0 0 13.41 2H3.498zM5.33 4h7.274c.201 0 .363.223.363.5s-.162.5-.363.5H5.33c-.201 0-.363-.223-.363-.5s.162-.5.363-.5zm0 3h7.274c.201 0 .363.223.363.5s-.162.5-.363.5H5.33c-.201 0-.363-.223-.363-.5s.162-.5.363-.5zm.1 3h5.142c.238 0 .428.223.428.5s-.19.5-.428.5H5.43c-.238 0-.43-.223-.43-.5s.192-.5.43-.5z"/><circle style="fill:currentColor;color:#4285f4" cx="1.5" cy="3.5" r="1.5"/></svg>
